fs/text_underline_16_filled.svg

<svg viewBox="0 0 16 16" fill="none" xmlns="http://www.w3.org/2000/svg" height="1em" width="1em">
  <path d="M11.0008 3.75C11.0008 3.55109 10.9218 3.36032 10.7811 3.21967C10.6405 3.07902 10.4497 3 10.2508 3H5.75079C5.33658 3 5.00079 3.33579 5.00079 3.75L5.00079 10.25C5.00079 10.6642 5.33658 11 5.75079 11C6.16501 11 6.50079 10.6642 6.50079 10.25L6.50079 4.5H9.50079V10.25C9.50079 10.6642 9.83658 11 10.2508 11C10.665 11 11.0008 10.6642 11.0008 10.25V3.75ZM4.80078 12.55C4.38657 12.55 4.05078 12.8858 4.05078 13.3C4.05078 13.7142 4.38657 14.05 4.80078 14.05H11.3008C11.715 14.05 12.0508 13.7142 12.0508 13.3C12.0508 12.8858 11.715 12.55 11.3008 12.55H4.80078Z" fill="#212121"/>
</svg>

<svg viewBox="0 0 16 16" fill="none" xmlns="http://www.w3.org/2000/svg" height="1em" width="1em">
  <path d="M11 3.75a.75.75 0 0 0-.75-.75h-4.5a.75.75 0 0 0-.75.75v6.5a.75.75 0 0 0 1.5 0V4.5h3v5.75a.75.75 0 0 0 1.5 0v-6.5Zm-6.2 8.8a.75.75 0 0 0 0 1.5h6.5a.75.75 0 0 0 0-1.5H4.8Z" fill="#212121"/>
</svg>
